auto-lastplayed/_inc/system.svg

<?xml version="1.0" encoding="UTF-8" standalone="no"?>
<svg width="108px" height="18px" viewBox="0 0 108 18" version="1.1" xmlns="http://www.w3.org/2000/svg" xmlns:xlink="http://www.w3.org/1999/xlink">
    <!-- Generator: Sketch 45 (43475) - http://www.bohemiancoding.com/sketch -->
    <title>system</title>
    <desc>Created with Sketch.</desc>
    <defs></defs>
    <g id="Page-1" stroke="none" stroke-width="1" fill="none" fill-rule="evenodd">
        <g id="system">
            <path d="M0.5,17.5 L4.5,0.5" id="Shape" stroke="#867740" stroke-linecap="round"></path>
            <path d="M14.902,14 L9.078,14 L9.078,4.2 L10.87,4.2 L10.87,12.264 L14.902,12.264 L14.902,14 Z M23.708,14 L21.846,14 L21.006,11.634 L17.744,11.634 L16.904,14 L15.042,14 L18.528,4.2 L20.222,4.2 L23.708,14 Z M20.39,9.898 L19.368,7.028 L18.36,9.898 L20.39,9.898 Z M27.67,14.196 C26.9699965,14.196 26.3306696,14.1260007 25.752,13.986 C25.1733304,13.8459993 24.7300015,13.678001 24.422,13.482 L24.632,11.438 C24.9306682,11.7273348 25.3483306,11.9723323 25.885,12.173 C26.4216694,12.3736677 27.0306633,12.474 27.712,12.474 C28.8786725,12.474 29.462,12.1193369 29.462,11.41 C29.462,11.213999 29.4153338,11.0366675 29.322,10.878 C29.2286662,10.7193325 29.1283339,10.5886672 29.021,10.486 C28.9136661,10.3833328 28.7340013,10.2736672 28.482,10.157 C28.2299987,10.0403328 28.0340007,9.95633359 27.894,9.905 C27.7539993,9.85366641 27.5160017,9.77200056 27.18,9.66 C26.8906652,9.5666662 26.6900006,9.4966669 26.578,9.45 L26.018,9.212 C25.7566654,9.10933282 25.5653339,9.01833373 25.444,8.939 C25.3226661,8.85966627 25.1733342,8.74766739 24.996,8.603 C24.8186658,8.45833261 24.6880004,8.31133408 24.604,8.162 C24.5199996,8.01266592 24.4453337,7.83300105 24.38,7.623 C24.3146663,7.41299895 24.282,7.18666788 24.282,6.944 C24.282,6.17866284 24.5713304,5.49733632 25.15,4.9 C25.7286696,4.30266368 26.619994,4.004 27.824,4.004 C28.4493365,4.004 29.0536638,4.08333254 29.637,4.242 C30.2203362,4.40066746 30.6566652,4.5733324 30.946,4.76 L30.764,6.594 C29.6906613,6.00599706 28.7340042,5.712 27.894,5.712 C27.4179976,5.712 27.0003351,5.79133254 26.641,5.95 C26.2816649,6.10866746 26.102,6.3746648 26.102,6.748 C26.102,7.10266844 26.2653317,7.37566571 26.592,7.567 C26.9186683,7.75833429 27.41333,7.95666564 28.076,8.162 C28.4213351,8.26466718 28.6849991,8.34866634 28.867,8.414 C29.0490009,8.47933366 29.2986651,8.57733268 29.616,8.708 C29.9333349,8.83866732 30.1806658,8.97633261 30.358,9.121 C30.5353342,9.26566739 30.7196657,9.44299895 30.911,9.653 C31.1023343,9.86300105 31.2423329,10.1103319 31.331,10.395 C31.4196671,10.6796681 31.464,10.9946649 31.464,11.34 C31.464,11.6013346 31.4406669,11.8463322 31.394,12.075 C31.3473331,12.3036678 31.2423342,12.553332 31.079,12.824 C30.9156658,13.094668 30.7010013,13.3256657 30.435,13.517 C30.1689987,13.7083343 29.8003357,13.8693327 29.329,14 C28.8576643,14.1306673 28.3046698,14.196 27.67,14.196 Z M39.416,5.936 L36.644,5.936 L36.644,14 L34.852,14 L34.852,5.936 L32.08,5.936 L32.08,4.2 L39.416,4.2 L39.416,5.936 Z M47.396,10.78 L45.646,10.78 L45.646,14 L43.854,14 L43.854,4.2 L46.626,4.2 C47.363337,4.2 47.9676643,4.23733296 48.439,4.312 C48.9103357,4.38666704 49.3396647,4.53133226 49.727,4.746 C50.1143353,4.96066774 50.3943325,5.27566459 50.567,5.691 C50.7396675,6.10633541 50.826,6.64533002 50.826,7.308 C50.826,7.97066998 50.7163344,8.54233093 50.497,9.023 C50.2776656,9.50366907 49.9860018,9.86533212 49.622,10.108 C49.2579982,10.3506679 48.8940018,10.5233328 48.53,10.626 C48.1659982,10.7286672 47.788002,10.78 47.396,10.78 Z M47.116,5.698 L45.646,5.698 L45.646,9.1 L47.158,9.1 C47.82067,9.1 48.2943319,8.96700133 48.579,8.701 C48.8636681,8.43499867 49.006,7.9753366 49.006,7.322 C49.006,6.74333044 48.8730013,6.32800126 48.607,6.076 C48.3409987,5.82399874 47.8440036,5.698 47.116,5.698 Z M58.022,14 L52.198,14 L52.198,4.2 L53.99,4.2 L53.99,12.264 L58.022,12.264 L58.022,14 Z M66.828,14 L64.966,14 L64.126,11.634 L60.864,11.634 L60.024,14 L58.162,14 L61.648,4.2 L63.342,4.2 L66.828,14 Z M63.51,9.898 L62.488,7.028 L61.48,9.898 L63.51,9.898 Z M74.444,4.2 L71.056,9.66 L71.056,14 L69.264,14 L69.264,9.66 L65.876,4.2 L67.78,4.2 L70.16,8.064 L72.54,4.2 L74.444,4.2 Z M81.836,14 L75.424,14 L75.424,4.2 L81.696,4.2 L81.696,5.936 L77.258,5.936 L77.258,8.022 L80.702,8.022 L80.702,9.758 L77.258,9.758 L77.258,12.264 L81.836,12.264 L81.836,14 Z M87.044,14 L83.376,14 L83.376,4.2 L87.044,4.2 C88.4720071,4.2 89.6339955,4.63866228 90.53,5.516 C91.4260045,6.39333772 91.874,7.58799244 91.874,9.1 C91.874,10.6120076 91.4260045,11.8066623 90.53,12.684 C89.6339955,13.5613377 88.4720071,14 87.044,14 Z M87.044,5.922 L85.168,5.922 L85.168,12.278 L87.044,12.278 C87.977338,12.278 88.6889975,11.9980028 89.179,11.438 C89.6690025,10.8779972 89.914,10.0986717 89.914,9.1 C89.914,8.10132834 89.6690025,7.3220028 89.179,6.762 C88.6889975,6.2019972 87.977338,5.922 87.044,5.922 Z" id="LAST-PLAYED-Copy" fill="#FFFFFF"></path>
            <g id="Group" transform="translate(94.000000, 3.000000)" fill-rule="nonzero" fill="#BBA358">
                <path d="M7.38768955,0.0828612674 C4.47840652,0.0828612674 2.05102998,2.15201569 1.49639246,4.89939133 L0.430479403,4.89939133 C0.383351189,4.89939819 0.3402699,4.92602578 0.319190054,4.9681768 C0.298110207,5.01032783 0.302648611,5.06077016 0.330913843,5.0984815 L1.93642387,7.23916154 C1.95992658,7.2705029 1.99681473,7.28894853 2.03598944,7.28894853 C2.07516415,7.28894853 2.1120523,7.2705029 2.13555501,7.23916154 L3.74106502,5.0984815 C3.76933025,5.06077016 3.77386866,5.01032783 3.75278881,4.96817681 C3.73170897,4.92602579 3.68862768,4.8993982 3.64149947,4.89939133 L2.85329604,4.89939133 C3.38233657,2.88776029 5.20860885,1.40209472 7.38768955,1.40209472 C9.98079267,1.40209472 12.0797729,3.50107499 12.0797729,6.09417811 C12.0797729,8.68728123 9.98079267,10.7862615 7.38768955,10.7862615 C5.76122625,10.7862615 4.32947857,9.95942693 3.48745781,8.70345973 C3.46435422,8.66898149 3.4255835,8.64828946 3.38408018,8.64828685 L2.144081,8.64828685 C2.1007501,8.64829914 2.06054488,8.67084858 2.03794085,8.70781647 C2.01533681,8.74478436 2.01358838,8.79084822 2.03332507,8.82942322 C3.02907526,10.774459 5.05362488,12.105495 7.38768955,12.105495 C10.706092,12.105495 13.3990064,9.41258056 13.3990064,6.09417811 C13.3990064,2.77575508 10.7060916,0.0828612674 7.38768955,0.0828612674 Z" id="path4921"></path>
                <path d="M6.98818588,2.68890476 C6.88882618,2.68890489 6.80827927,2.7694518 6.80827914,2.86881149 L6.80827914,6.7851934 C6.80828568,6.84889377 6.84197688,6.90784161 6.89685943,6.94017801 L9.68563791,8.58364503 C9.77120442,8.63405979 9.88143723,8.60560252 9.93190783,8.52006893 L10.2037969,8.05929657 C10.2541435,7.97393375 10.2259736,7.86392976 10.1407948,7.81327241 L7.70326263,6.36389456 L7.70326263,2.86881149 C7.70326249,2.7694518 7.62271558,2.68890489 7.52335589,2.68890476 L6.98818588,2.68890476 Z" id="polygon4923"></path>
            </g>
        </g>
    </g>
</svg>

<?xml version="1.0" encoding="UTF-8" standalone="no"?>
<svg
   xmlns:dc="http://purl.org/dc/elements/1.1/"
   xmlns:cc="http://creativecommons.org/ns#"
   xmlns:rdf="http://www.w3.org/1999/02/22-rdf-syntax-ns#"
   xmlns:svg="http://www.w3.org/2000/svg"
   xmlns="http://www.w3.org/2000/svg"
   xmlns:sodipodi="http://sodipodi.sourceforge.net/DTD/sodipodi-0.dtd"
   xmlns:inkscape="http://www.inkscape.org/namespaces/inkscape"
   width="110"
   height="18"
   viewBox="0 0 110 18"
   version="1.1"
   id="svg15"
   sodipodi:docname="system.svg"
   inkscape:version="0.92.3 (2405546, 2018-03-11)">
  <metadata
     id="metadata19">
    <rdf:RDF>
      <cc:Work
         rdf:about="">
        <dc:format>image/svg+xml</dc:format>
        <dc:type
           rdf:resource="http://purl.org/dc/dcmitype/StillImage" />
        <dc:title>system</dc:title>
      </cc:Work>
    </rdf:RDF>
  </metadata>
  <sodipodi:namedview
     pagecolor="#ffffff"
     bordercolor="#666666"
     borderopacity="1"
     objecttolerance="10"
     gridtolerance="10"
     guidetolerance="10"
     inkscape:pageopacity="0"
     inkscape:pageshadow="2"
     inkscape:window-width="933"
     inkscape:window-height="1018"
     id="namedview17"
     showgrid="false"
     inkscape:zoom="3.9021819"
     inkscape:cx="60.170418"
     inkscape:cy="14.992445"
     inkscape:window-x="985"
     inkscape:window-y="31"
     inkscape:window-maximized="0"
     inkscape:current-layer="svg15" />
  <!-- Generator: Sketch 45 (43475) - http://www.bohemiancoding.com/sketch -->
  <title
     id="title2">system</title>
  <desc
     id="desc4">Created with Sketch.</desc>
  <defs
     id="defs6" />
  <g
     id="Page-1"
     style="fill:none;fill-rule:evenodd;stroke:none;stroke-width:1">
    <g
       id="system">
      <path
         d="m 0.5,17.5 4,-17"
         id="Shape"
         inkscape:connector-curvature="0"
         style="stroke:#867740;stroke-linecap:round" />
      <path
         d="M 14.902,14 H 9.078 V 4.2 h 1.792 v 8.064 h 4.032 z m 8.806,0 h -1.862 l -0.84,-2.366 H 17.744 L 16.904,14 h -1.862 l 3.486,-9.8 h 1.694 z M 20.39,9.898 19.368,7.028 18.36,9.898 Z m 7.28,4.298 c -0.700004,0 -1.33933,-0.07 -1.918,-0.21 -0.57867,-0.140001 -1.021999,-0.307999 -1.33,-0.504 l 0.21,-2.044 c 0.298668,0.289335 0.716331,0.534332 1.253,0.735 0.536669,0.200668 1.145663,0.301 1.827,0.301 1.166672,0 1.75,-0.354663 1.75,-1.064 0,-0.196001 -0.04667,-0.373332 -0.14,-0.532 C 29.22867,10.719333 29.128334,10.588667 29.021,10.486 28.913666,10.383333 28.734001,10.273667 28.482,10.157 28.229999,10.040333 28.034001,9.9563336 27.894,9.905 27.753999,9.8536664 27.516002,9.7720006 27.18,9.66 26.890665,9.5666662 26.690001,9.4966669 26.578,9.45 L 26.018,9.212 C 25.756665,9.1093328 25.565334,9.0183337 25.444,8.939 25.322666,8.8596663 25.173334,8.7476674 24.996,8.603 24.818666,8.4583326 24.688,8.3113341 24.604,8.162 24.52,8.0126659 24.445334,7.833001 24.38,7.623 24.314666,7.412999 24.282,7.1866679 24.282,6.944 c 0,-0.7653372 0.28933,-1.4466637 0.868,-2.044 0.57867,-0.5973363 1.469994,-0.896 2.674,-0.896 0.625336,0 1.229664,0.079333 1.813,0.238 0.583336,0.1586675 1.019665,0.3313324 1.309,0.518 l -0.182,1.834 c -1.073339,-0.5880029 -2.029996,-0.882 -2.87,-0.882 -0.476002,0 -0.893665,0.079333 -1.253,0.238 -0.359335,0.1586675 -0.539,0.4246648 -0.539,0.798 0,0.3546684 0.163332,0.6276657 0.49,0.819 0.326668,0.1913343 0.82133,0.3896656 1.484,0.595 0.345335,0.1026672 0.608999,0.1866663 0.791,0.252 0.182001,0.065334 0.431665,0.1633327 0.749,0.294 0.317335,0.1306673 0.564666,0.2683326 0.742,0.413 0.177334,0.1446674 0.361666,0.321999 0.553,0.532 0.191334,0.210001 0.331333,0.457332 0.42,0.742 0.08867,0.284668 0.133,0.599665 0.133,0.945 0,0.261335 -0.02333,0.506332 -0.07,0.735 -0.04667,0.228668 -0.151666,0.478332 -0.315,0.749 -0.163334,0.270668 -0.377999,0.501666 -0.644,0.693 -0.266001,0.191334 -0.634664,0.352333 -1.106,0.483 -0.471336,0.130667 -1.02433,0.196 -1.659,0.196 z M 39.416,5.936 H 36.644 V 14 H 34.852 V 5.936 H 32.08 V 4.2 h 7.336 z m 7.98,4.844 h -1.75 V 14 H 43.854 V 4.2 h 2.772 c 0.737337,0 1.341664,0.037333 1.813,0.112 0.471336,0.074667 0.900665,0.2193323 1.288,0.434 0.387335,0.2146677 0.667332,0.5296646 0.84,0.945 0.172668,0.4153354 0.259,0.95433 0.259,1.617 0,0.66267 -0.109666,1.2343309 -0.329,1.715 -0.219334,0.4806691 -0.510998,0.8423321 -0.875,1.085 -0.364002,0.242668 -0.727998,0.415333 -1.092,0.518 -0.364002,0.102667 -0.741998,0.154 -1.134,0.154 z m -0.28,-5.082 h -1.47 V 9.1 h 1.512 c 0.66267,0 1.136332,-0.1329987 1.421,-0.399 0.284668,-0.2660013 0.427,-0.7256634 0.427,-1.379 0,-0.5786696 -0.132999,-0.9939987 -0.399,-1.246 C 48.340999,5.8239987 47.844004,5.698 47.116,5.698 Z M 58.022,14 H 52.198 V 4.2 h 1.792 v 8.064 h 4.032 z m 8.806,0 h -1.862 l -0.84,-2.366 H 60.864 L 60.024,14 h -1.862 l 3.486,-9.8 h 1.694 z M 63.51,9.898 62.488,7.028 61.48,9.898 Z M 74.444,4.2 71.056,9.66 V 14 H 69.264 V 9.66 L 65.876,4.2 H 67.78 L 70.16,8.064 72.54,4.2 Z M 81.836,14 H 75.424 V 4.2 h 6.272 v 1.736 h -4.438 v 2.086 h 3.444 v 1.736 h -3.444 v 2.506 h 4.578 z m 5.208,0 H 83.376 V 4.2 h 3.668 c 1.428007,0 2.589995,0.4386623 3.486,1.316 0.896005,0.8773377 1.344,2.0719924 1.344,3.584 0,1.512008 -0.447995,2.706662 -1.344,3.584 C 89.633995,13.561338 88.472007,14 87.044,14 Z m 0,-8.078 h -1.876 v 6.356 h 1.876 c 0.933338,0 1.644997,-0.279997 2.135,-0.84 0.490003,-0.560003 0.735,-1.339328 0.735,-2.338 0,-0.9986717 -0.244997,-1.7779972 -0.735,-2.338 -0.490003,-0.5600028 -1.201662,-0.84 -2.135,-0.84 z"
         id="LAST-PLAYED-Copy"
         inkscape:connector-curvature="0"
         style="fill:#ffffff" />
      <g
         id="Group"
         transform="translate(94,3)"
         style="fill:#bba358;fill-rule:nonzero">
        <path
           d="m 9.3876895,0.08286127 c -2.909283,0 -5.3366595,2.06915443 -5.891297,4.81653003 H 2.4304794 c -0.047128,6.9e-6 -0.090209,0.026635 -0.1112893,0.068786 -0.02108,0.042151 -0.016542,0.092593 0.011724,0.1303047 l 1.60551,2.14068 c 0.023503,0.031341 0.060391,0.049787 0.099565,0.049787 0.039175,0 0.076063,-0.018446 0.099566,-0.049787 l 1.60551,-2.14068 C 5.7693299,5.060771 5.7738689,5.010328 5.7527889,4.9681773 5.7317089,4.9260263 5.6886279,4.8993983 5.6414996,4.8993913 H 4.853296 c 0.5290406,-2.011631 2.3553128,-3.4972966 4.5343935,-3.4972966 2.5931035,0 4.6920835,2.0989803 4.6920835,4.6920834 0,2.5931031 -2.09898,4.6920839 -4.6920835,4.6920839 -1.6264633,0 -3.0582109,-0.8268351 -3.9002317,-2.0828023 -0.023104,-0.034478 -0.061874,-0.05517 -0.1033776,-0.055173 H 4.144081 c -0.043331,1.22e-5 -0.083536,0.022562 -0.1061401,0.05953 -0.022604,0.036968 -0.024352,0.083032 -0.00462,0.1216067 0.9957502,1.9450356 3.0202998,3.2760716 5.3543644,3.2760716 3.3184027,0 6.0113167,-2.6929142 6.0113167,-6.0113167 0,-3.318423 -2.692914,-6.01131683 -6.0113167,-6.01131683 z"
           id="path4921"
           inkscape:connector-curvature="0"
           sodipodi:nodetypes="cccsccscccccssscccccsscc" />
        <path
           d="m 6.9881859,2.6889048 c -0.09936,10e-8 -0.1799066,0.080547 -0.1799068,0.1799067 v 3.9163819 c 6.6e-6,0.0637 0.033698,0.1226482 0.08858,0.1549846 L 9.6856376,8.583645 C 9.7712046,8.63406 9.8814369,8.605602 9.9319075,8.520069 L 10.203797,8.0592966 c 0.05035,-0.085363 0.02218,-0.1953668 -0.063,-0.2460242 L 7.7032626,6.3638946 V 2.8688115 c -1e-7,-0.09936 -0.080547,-0.1799066 -0.1799067,-0.1799067 z"
           id="polygon4923"
           inkscape:connector-curvature="0" />
      </g>
    </g>
  </g>
</svg>
